X: 111102
T: EARL OF LAUDERDALE
Q: "Reel."
R:  Reel.
%R: reel
B: James Kerr "Merry Melodies" v.1 p.11 s.1 #2
Z: 2017 John Chambers <jc:trillian.mit.edu>
M: C
L: 1/8
K: G
|: uD |\
G2(Bd) cAFD | GBdg d2(cB) |\
ceAc BdGB | AcFA G2-G ::\
d |\
gbeg fadf | egce d2(cB) |
ceAc BdGB | AcDF G2-Gd |\
gbeg fadf | egce d2(cB) |\
ceAc BdGB | AcDF G2-G |]

%%sep 1 1 500
%%sep 1 1 500

